X: 34642
T: Road To Banff, The
R: jig
M: 6/8
K: Dmajor
|:Add dcd|BAG A3|AdA eAf|g3 ecB|
Add dcd|BAG A3|AdA eAf|1 gec d2d:|2 gec d2 f/g/||
|:a3 fdA|g3 ecB|AdA eAf|g3 efg|
a3 fdA|g3 ecB|AdA eAf|1 gec d2 f/g/:|2 gec d2d||

